X: 28136
T: Mrs Crotty's
R: hornpipe
M: 4/4
K: Dmajor
a2 fa g2 eg|f2 df e2 ce|d2 cd efge|f2 df e2 fg|
a2 fa g2 eg|f2 df e2 ce|d2 cd efge|f2 d2 d2:|
dBBA BedB|AGFG ABcA|d2 cd efge|f2 df e2 fe|
dBBA BedB|AGFG ABcA|d2 cd efge|f2 d2 d2:|
a>Af>a g2 (3efg|f>Ad>f e>Ac>e|(3ded c>d e2 (3efg|f2 (3def e2 f>g|
a2 f>a g>Ae>g|f2 d>f e2 (3cBA|d2 c>d e>fg>e|f>dd>c d2:|
d>BB>^A B2 (3edB|A>GF>G A2 (3ABc|d2 (3Bcd (3efg g>e|f>Ad>f e2- e>f|
d2 B>^A B>ed>B|A2 (3EFG A>B (3cBA|d>AF>d e>f (3gfe|f>d (3ddd d2:|

